X:216
T:Martin Wynne's No. 2
Z: id:dc-reel-197
M:C
L:1/8
K:B Minor
A|FBAF E2FE|DB,B,2 DB,A,2|B,EE2 FEDE|FABc dcBA|!
FBAF E2FE|DB,B,2 DB,A,2|B,EE2 FEDE|FBBA B3:|!
A|FBAF A2BA|Bdeg fdde|f2af e2fe|dBBA B3A|!
FBAF A2BA|Bdeg fddf|bfaf egfe|dBBA B3:|!

